src/assets/verified-organization.svg

<svg viewBox="0 0 22 22" aria-label="Verified account" role="img" class="r-4qtqp9 r-yyyyoo r-1xvli5t r-9cviqr r-f9ja8p r-og9te1 r-bnwqim r-1plcrui r-lrvibr" data-testid="icon-verified"><g><path clip-rule="evenodd" d="M13.596 3.011L11 .5 8.404 3.011l-3.576-.506-.624 3.558-3.19 1.692L2.6 11l-1.586 3.245 3.19 1.692.624 3.558 3.576-.506L11 21.5l2.596-2.511 3.576.506.624-3.558 3.19-1.692L19.4 11l1.586-3.245-3.19-1.692-.624-3.558-3.576.506zM6 11.39l3.74 3.74 6.2-6.77L14.47 7l-4.8 5.23-2.26-2.26L6 11.39z" fill="url(#paint0_linear_8728_433881)" fill-rule="evenodd"></path><path clip-rule="evenodd" d="M13.348 3.772L11 1.5 8.651 3.772l-3.235-.458-.565 3.219-2.886 1.531L3.4 11l-1.435 2.936 2.886 1.531.565 3.219 3.235-.458L11 20.5l2.348-2.272 3.236.458.564-3.219 2.887-1.531L18.6 11l1.435-2.936-2.887-1.531-.564-3.219-3.236.458zM6 11.39l3.74 3.74 6.2-6.77L14.47 7l-4.8 5.23-2.26-2.26L6 11.39z" fill="url(#paint1_linear_8728_433881)" fill-rule="evenodd"></path><path clip-rule="evenodd" d="M6 11.39l3.74 3.74 6.197-6.767h.003V9.76l-6.2 6.77L6 12.79v-1.4zm0 0z" fill="#D18800" fill-rule="evenodd"></path><defs><linearGradient gradientUnits="userSpaceOnUse" id="paint0_linear_8728_433881" x1="4" x2="19.5" y1="1.5" y2="22"><stop stop-color="#F4E72A"></stop><stop offset=".539" stop-color="#CD8105"></stop><stop offset=".68" stop-color="#CB7B00"></stop><stop offset="1" stop-color="#F4EC26"></stop><stop offset="1" stop-color="#F4E72A"></stop></linearGradient><linearGradient gradientUnits="userSpaceOnUse" id="paint1_linear_8728_433881" x1="5" x2="17.5" y1="2.5" y2="19.5"><stop stop-color="#F9E87F"></stop><stop offset=".406" stop-color="#E2B719"></stop><stop offset=".989" stop-color="#E2B719"></stop></linearGradient></defs></g></svg>

<?xml version="1.0" encoding="UTF-8" standalone="no"?>
<!DOCTYPE svg PUBLIC "-//W3C//DTD SVG 1.1//EN" "http://www.w3.org/Graphics/SVG/1.1/DTD/svg11.dtd">
<svg width="100%" height="100%" viewBox="0 0 22 22" version="1.1" xmlns="http://www.w3.org/2000/svg" xmlns:xlink="http://www.w3.org/1999/xlink" xml:space="preserve" xmlns:serif="http://www.serif.com/" style="fill-rule:evenodd;clip-rule:evenodd;stroke-linejoin:round;stroke-miterlimit:2;">
    <g>
        <path d="M13.596,3.011L11,0.5L8.404,3.011L4.828,2.505L4.204,6.063L1.014,7.755L2.6,11L1.014,14.245L4.204,15.937L4.828,19.495L8.404,18.989L11,21.5L13.596,18.989L17.172,19.495L17.796,15.937L20.986,14.245L19.4,11L20.986,7.755L17.796,6.063L17.172,2.505L13.596,3.011ZM6,11.39L9.74,15.13L15.94,8.36L14.47,7L9.67,12.23L7.41,9.97L6,11.39Z" style="fill:url(#_Linear1);"/>
        <path d="M13.348,3.772L11,1.5L8.651,3.772L5.416,3.314L4.851,6.533L1.965,8.064L3.4,11L1.965,13.936L4.851,15.467L5.416,18.686L8.651,18.228L11,20.5L13.348,18.228L16.584,18.686L17.148,15.467L20.035,13.936L18.6,11L20.035,8.064L17.148,6.533L16.584,3.314L13.348,3.772ZM6,11.39L9.74,15.13L15.94,8.36L14.47,7L9.67,12.23L7.41,9.97L6,11.39Z" style="fill:url(#_Linear2);"/>
        <path d="M6,11.39L9.74,15.13L15.937,8.363L15.94,8.363L15.94,9.76L9.74,16.53L6,12.79L6,11.39Z" style="fill:rgb(209,136,0);"/>
    </g>
    <defs>
        <linearGradient id="_Linear1" x1="0" y1="0" x2="1" y2="0" gradientUnits="userSpaceOnUse" gradientTransform="matrix(15.5,20.5,-20.5,15.5,4,1.5)"><stop offset="0" style="stop-color:rgb(244,231,42);stop-opacity:1"/><stop offset="0.54" style="stop-color:rgb(205,129,5);stop-opacity:1"/><stop offset="0.68" style="stop-color:rgb(203,123,0);stop-opacity:1"/><stop offset="1" style="stop-color:rgb(244,236,38);stop-opacity:1"/><stop offset="1" style="stop-color:rgb(244,231,42);stop-opacity:1"/></linearGradient>
        <linearGradient id="_Linear2" x1="0" y1="0" x2="1" y2="0" gradientUnits="userSpaceOnUse" gradientTransform="matrix(12.5,17,-17,12.5,5,2.5)"><stop offset="0" style="stop-color:rgb(249,232,127);stop-opacity:1"/><stop offset="0.41" style="stop-color:rgb(226,183,25);stop-opacity:1"/><stop offset="1" style="stop-color:rgb(226,183,25);stop-opacity:1"/></linearGradient>
    </defs>
</svg>
